packages/foundations/assets/icons/functional/images/devices/telephone_16_filled.svg

<svg width="16" height="16" viewBox="0 0 16 16" fill="none" xmlns="http://www.w3.org/2000/svg">
<g clip-path="url(#clip0_2204_2751)">
<path fill-rule="evenodd" clip-rule="evenodd" d="M1.90002 5.39589C1.90002 8.94699 7.07673 14.171 10.5647 14.171C12.1745 14.171 14.1 12.6085 14.1 11.1723C14.1 10.7462 13.9579 10.3201 13.6265 9.98862L12.5059 8.85226C12.2534 8.59975 11.9536 8.4735 11.6379 8.4735C11.2907 8.4735 10.9435 8.61551 10.6909 8.86802L9.53883 10.0202C8.19732 8.94699 7.28195 7.98425 5.98773 6.51641L7.13985 5.34853C7.39236 5.09602 7.53446 4.74879 7.53446 4.40155C7.53446 4.11752 7.43973 3.81765 7.23458 3.59667L6.06662 2.33405C5.71947 1.97106 5.29334 1.82904 4.83561 1.82904C3.44675 1.82904 1.90002 3.73868 1.90002 5.39589Z" fill="#1A1C1F"/>
</g>
<defs>
<clipPath id="clip0_2204_2751">
<rect width="16" height="16" fill="white"/>
</clipPath>
</defs>
</svg>

<svg xmlns="http://www.w3.org/2000/svg" width="16" height="16" fill="none"><g clip-path="url(#a)"><path fill="#1A1C1F" fill-rule="evenodd" d="M1.9 5.396c0 3.551 5.177 8.775 8.665 8.775 1.61 0 3.535-1.562 3.535-2.999 0-.426-.142-.852-.473-1.183l-1.121-1.137a1.2 1.2 0 0 0-.868-.379c-.347 0-.694.143-.947.395L9.539 10.02C8.197 8.947 7.282 7.984 5.988 6.516L7.14 5.35c.252-.253.394-.6.394-.947 0-.284-.094-.584-.3-.805L6.068 2.334c-.348-.363-.774-.505-1.231-.505-1.39 0-2.936 1.91-2.936 3.567" clip-rule="evenodd"/></g><defs><clipPath id="a"><path fill="#fff" d="M0 0h16v16H0z"/></clipPath></defs></svg>
